X: 1
T: Sweeney's Buttermilk
C: Brendan McGlinchey
R: reel
D: Kevin Burke "Sweeney's Dream" (Folkways ____)
D: Touchstone "A New Land"
D: Silly Wizard "So Many Partings"
Z: Ken Fleming <ken1gd@flash.net> irtrad-l 2000-02-27
M: C|
L: 1/8
K: Bm
FB (3BdB fB (3BdB | dcBc AE (3EGE) | FB (3BdB ABce | afec Ba^ga | (3faf ec
f2ec | BABc BAFE | FB (3BdB ABce | afec B2BA :| FBdc BF (3FFF | EAcB AE (3EGE | FBdc
Bdfb | afec Bcdc | Bcde fB (3BdB | afec ABce | ~f3a bf (3faf | afec B2BA :|
